X: 1
T: Betsy Hooper's Jig
C: Terry Traub 1995
R: jig
Z: 1998 by John Chambers <jc:trillian.mit.edu>
N: by Terry Traub <ttraub:world.std.com>
M: 6/8
L: 1/8
K: E
   B "A"\
| "E"efg gfe | "A"cec "E"BGE | B,EG BGE | "B7"GFF F2B \
| "E"efg gfe | "A"cec "E"BGE | B,EG "B7"A2F | "E"GEE E2 :|
 y2B "B"\
| "E"Bef gBg | bBg gfe | Bef gBg | "F#m"gfe "B7"f2B \
| "E"Bef gBg | bBg gfe | "A"cec "B7"BGF | "E"GEE E2 ||
 y2B "C"\
| "E"Bef gBg | bBg gfe | Bef gBg | "F#(m)"gfe "B7"f2B \
| "E"efg gfe | "A"cec "E"BGE | B,EG "B7"A2F | "E"GEE E2 |]
